X: 1
T: Orange and blue
F:http://www.rudemex.co.uk/library/ABC/Orange%20and%20blue.abc	 2022-05-02 015607 UT
K:G
M:4/4     %Meter
L:1/8     %
d>c||"G"B/G3/2 G2 D/G3/2 G2 |B3/2G/ d3/2B/ G2 A3/2B/ |"D"c/A3/2 A2 F/A3/2 A2 |F3/2D/ A3/2F/ D2 d3/2c/ |
"G"B/G3/2 G2 D/G3/2 G2 |B3/2G/ d3/2B/ G2 (3Bcd |"C"e3/2c/ "G"d3/2B/ "Am"c3/2A/ "G"B3/2G/ |"D"A3/2F/ (3DEF "G"G2 dc/ ||
||"G"B/d3/2 d/d3/2 d/d3/2 d/d3/2 |B3/2c/ d3/2B/ G2 G2 |"Am7"c/e3/2 e/e3/2 e/e3/2 e/e3/2 |"C"c3/2d/ e3/2c/ "D"A2 A2 |
"G"B/d3/2 d/d3/2 d/d3/2 d/d3/2 |B3/2c/ d3/2B/ G2 (3Bcd |"C"e3/2c/ "G"d3/2B/ "Am"c3/2A/ "G"B3/2G/ |"D"A3/2F/ (3DEF "G"G2 |]
     %End of file





